app/assets/images/heroicons/micro/gif.svg

<svg width="16" height="16" viewBox="0 0 16 16" fill="none" xmlns="http://www.w3.org/2000/svg">
<path fill-rule="evenodd" clip-rule="evenodd" d="M3 3C1.89543 3 1 3.89543 1 5V11C1 12.1046 1.89543 13 3 13H13C14.1046 13 15 12.1046 15 11V5C15 3.89543 14.1046 3 13 3H3ZM3.89531 6.45811C4.14171 6.07092 4.37859 6 4.5 6C4.62141 6 4.85829 6.07092 5.10469 6.45811C5.32707 6.80757 5.79064 6.91058 6.14009 6.6882C6.48955 6.46582 6.59256 6.00226 6.37018 5.6528C5.93316 4.96605 5.27432 4.5 4.5 4.5C3.72568 4.5 3.06684 4.96605 2.62982 5.6528C2.19521 6.33575 2 7.18737 2 8C2 8.81263 2.19521 9.66425 2.62982 10.3472C3.06684 11.0339 3.72568 11.5 4.5 11.5C5.27432 11.5 5.93316 11.0339 6.37018 10.3472C6.44676 10.2269 6.48744 10.0872 6.48744 9.94454V8C6.48744 7.58579 6.15165 7.25 5.73744 7.25H5C4.58579 7.25 4.25 7.58579 4.25 8C4.25 8.41002 4.57902 8.74319 4.98744 8.7499V9.70464C4.78536 9.94998 4.60196 10 4.5 10C4.37859 10 4.14171 9.92908 3.89531 9.54189C3.6465 9.1509 3.5 8.59494 3.5 8C3.5 7.40506 3.6465 6.8491 3.89531 6.45811ZM9 5.25C9 4.83579 8.66421 4.5 8.25 4.5C7.83579 4.5 7.5 4.83579 7.5 5.25V10.75C7.5 11.1642 7.83579 11.5 8.25 11.5C8.66421 11.5 9 11.1642 9 10.75V5.25ZM10 5.25C10 4.83579 10.3358 4.5 10.75 4.5H13.25C13.6642 4.5 14 4.83579 14 5.25C14 5.66421 13.6642 6 13.25 6H11.5V7.25H12.25C12.6642 7.25 13 7.58579 13 8C13 8.41421 12.6642 8.75 12.25 8.75H11.5V10.75C11.5 11.1642 11.1642 11.5 10.75 11.5C10.3358 11.5 10 11.1642 10 10.75V5.25Z" fill="black"/>
</svg>

<svg xmlns="http://www.w3.org/2000/svg" viewBox="0 0 16 16" fill="currentColor" aria-hidden="true" data-slot="icon">
  <path fill-rule="evenodd" d="M3 3a2 2 0 0 0-2 2v6a2 2 0 0 0 2 2h10a2 2 0 0 0 2-2V5a2 2 0 0 0-2-2H3Zm.895 3.458C4.142 6.071 4.38 6 4.5 6s.358.07.605.458a.75.75 0 1 0 1.265-.805C5.933 4.966 5.274 4.5 4.5 4.5s-1.433.466-1.87 1.153C2.195 6.336 2 7.187 2 8s.195 1.664.63 2.347c.437.687 1.096 1.153 1.87 1.153s1.433-.466 1.87-1.153a.75.75 0 0 0 .117-.402V8a.75.75 0 0 0-.75-.75H5a.75.75 0 0 0-.013 1.5v.955C4.785 9.95 4.602 10 4.5 10c-.121 0-.358-.07-.605-.458C3.647 9.15 3.5 8.595 3.5 8c0-.595.147-1.15.395-1.542ZM9 5.25a.75.75 0 0 0-1.5 0v5.5a.75.75 0 0 0 1.5 0v-5.5Zm1 0a.75.75 0 0 1 .75-.75h2.5a.75.75 0 0 1 0 1.5H11.5v1.25h.75a.75.75 0 0 1 0 1.5h-.75v2a.75.75 0 0 1-1.5 0v-5.5Z" clip-rule="evenodd"/>
</svg>
